X: 36
T:Maltese Branle
M:C|
L:1/4
R:Branle
B:Thoinot Arbeau : Orchesographie, 1589
Z:Steve Mansfield March 2001
K:BBlyd
B/A/B/c/ dd | cB AG/F/ | GG F2 ::
B/A/B/c/ de | cd e2 | c/d/e d2 |
c/d/ ed c/B/ | A/G/ B/A/ B2 ||
<end>
<start>
